X:1
T:Title
%%score 1 2 3
L:1/8
M:3/2
K:C
V:1 treble nm="Part_1"
V:2 treble-8 nm="Part_2"
V:3 treble-8 nm="Part_3"
V:1
 F12- | F8 D4 | z4 F6 E2 | E6 F2 G4 | G6 F2 E2 D2 | D4 z4 F2 G2 | A4 G4 _B4 | _B2 A2 A6 G2 | %8
 G6 F2 F4 | F2 E2 F2 G2 E2 DE | F12 | z4 z4 D4 | D6 E2 F4 | G6 F2 E4 | D4 C4 D2 E2 | F4 E4 A4 | %16
 A8 G2 F2 | A4 z4 A2 B2 | c8 c4 | d4 c6 _B2 | A2 G2 A4 G4- | G2 F2 F4 E4- | E2 D2 F6 G2 | %23
 A2 _B2 c6 B2 | _B4 A6 F2 | G4 F4 G2 E2 | G4 z4 G4 | G8 A4 | A4 B6 A2 | c6 B2 A2 G2 | G4 z4 G4 | %31
 A8 G4 | F4 E6 D2 | F6 G2 A4 | B4 c6 B2 | _B4 A6 F2 | G6 F2 G2 E2 | G4 F2 E4 D2 | D4 E4 C3 B, | %39
 D12 | z4 z4 D4 | D6 E2 F4 | F4 G6 F2 | A6 G2 G2 F2 | A4 z4 A4 | F4 G4 F4 | E2 F2 G2 F2 A4- | %47
 A2 G2 _B6 A2 | A4 G4 z4 | G4 F2 A4 G2 | G4 F6 E2 | E4 D8 | E12 |] %53
V:2
 F12- | F12 | D12 | C12- | C12 | D8 D2 E2 | F4 G8 | z4 A8 | _B12 | A4 G8 | F12- | F12 | _B8 A4 | %13
 G12- | G4 A8 | F4 G4 A4 | d4 c2 A2 _B4 | A12 | f12- | f12 | f8 c4- | c4 d4 c4- | c4 d8 | f8 e4 | %24
 d4 c8 | _B4 A8 | G12- | G12 | d12 | c12 | e12 | d8 B4 | A4 c6 B2 | d8 d4 | z4 z4 d4 | G4 d4 c4 | %36
 _B4 A8 | G4 A4 G4 | F4 E8 | D12- | D12 | d12- | d4 e8 | d4 c2 A2 _B4 | A8 A4 | D4 E4 D4 | C8 F4- | %47
 F4 G8 | A4 _B4 c4 | _B4 A8 | E4 D4 A4 | G4 F8 | E12 |] %53
V:3
 c12 | c8 A4- | A4 _B4 A2 B2 | c12 | z12 | A8 A4 | D4 d8 | G4 F8 | z4 G4 D4 | F4 C8 | c12- | %11
 c4 A8 | G4 D8 | z4 d4 B4- | B4 c4 F4 | c4 B2 d4 D2 | D4 A2 F2 G4 | D4 z4 z4 | F12- | F12 | F8 z4 | %21
 z4 D4 A4 | A4 D8 | d4 A8 | D4 F8 | G4 D8 | d12- | d12 | z4 G8 | A12 | c12 | z4 f4 d4 | z4 A6 D2 | %33
 D12 | d4 A4 F4 | G4 D4 A4 | G4 D8 | d4 c4 B2 A2 | A4 G6 F2 | A12- | A8 z4 | D12- | D4 C8 | F8 G4 | %44
 D8 F3 G | A4 G4 A2 _B2 | c4 G4 D4 | z4 d8 | D4 G4 z4 | G4 D8 | B2 c2 d4 c4 | B4 A8 | B12 |] %53

